X: 138032
T: FREE AND EASY
Q: "Irish Jig."
R: Jig.
%R: jig
B: James Kerr "Merry Melodies" v.1 p.38 s.0 #32
Z: 2016 John Chambers <jc:trillian.mit.edu>
M: 6/8
L: 1/8
K: Am
[|\
ABA edc | BGB dcB | ABA edB | A3 e3 |\
ABA edc | BGB dcB | e^fg edB | A3 e3 |]|\
ve2v^f ug2ua | g2e dBG | e2^f g2a | bge bge |
e2^f g2a | g^fe dBd | e^fg edB | A3 e3 |[|\
vA2ve uA2ue | A2e ede | A2e A2e | A2e dcB |\
A2e A2e | A2e ede | g^fe dBG | A3 e3 |]

%%sep 1 1 500
%%sep 1 1 500

